!!!OTL: 1349. Der deutsche Soldat.
!!!ARE: Europa, Mitteleuropa, Deutschland, Ober - Hessen, Giessen
!!!SCT: E1350
!!!TXL: @@DE
!!!YEM: Copyright 1995, estate of Helmut Schaffrath.
**kern	**text
*ICvox	*
*M4/4	*
*met(c)	*
*k[f#]	*
*G:	*
!LO:TX:a:t=Im Schritt.	!
!LO:TX:a:t=Aus Oberheſſen (Gießen u. Umgegend). Nach 1870 viel geſungen.	!
!LO:TX:a:t=Neueſter Text.	!
{8d	Red-
8d	-lich
=1	=1
4.b/	iſt
8a	der
(4g	deut-
8f#)	.
8g	-ſche
=2	=2
2a\	Mann,
4r}	.
{8a	der
8b/	für
=3	=3
4.cc	Deutſch-
8ee	-land
4dd	ſtrei-
4cc	-ten
=4	=4
(4cc	kann,
4b)	.
4r}	.
{8g	der
8a	ſein
=5	=5
4b	Weib
4b	und
4cc	Kind
4dd	ver-
=6	=6
4.ee	-läßt,
8cc	ja
4a}	läßt,
{8a	hält
8a	im
=7	=7
4.dd	wüth'-
8dd	-ſten
8dd	Kampf
8dd	für
8cc	Deutſch-
8cc	-land
=8	=8
2b	feſt.
4r}	.
{8g	der
8a	ſein
=9	=9
4b	Weib
4b	und
4cc	Kind
4dd	ver-
=10	=10
4.ee	-läßt,
8cc	ja
4a}	läßt,
{8a	hält
8a	im
=11	=11
4.dd	wüth'-
8dd	-ſten
8dd	Kampf
8dd	für
8cc	Deutſch-
8cc	-land
=12	=12
2b	feſt.
4r}	.
==	==
!!!AGN: Staende -, Soldaten -, Kriegs - Lied
!!!ONB: ESAC (Essen Associative Code) Database: ERK3
!!!AMT: simple quadruple
!!!AIN: vox
!!!EED: Helmut Schaffrath
!!!EEV: 1.0
!!!GTL: Staendelieder (Berufslieder). 1. Soldaten- und Kriegslieder. Soldatenlieder seit dem 30jaehr. Kriege.
!!!URL-scan: https://rosdok.uni-rostock.de/mcrviewer/recordIdentifier/rosdok_ppn745177999/iview2/phys_0231.iview2?x=-128.77276441889285&y=1297.6300457096659&scale=0.5870222003877487&rotation=0&layout=singlePageLayout
!!!ENC: Anna Maria Matuszewska
!!!EEV: 2024/12/30
*-	*-
